svgs/sharp-solid/hands-bound.svg

<svg xmlns="http://www.w3.org/2000/svg" viewBox="0 0 640 512"><!--! Font Awesome Pro 6.6.0 by @fontawesome - https://fontawesome.com License - https://fontawesome.com/license (Commercial License) Copyright 2024 Fonticons, Inc. --><path d="M96 32L96 0 32 0l0 32 0 32 0 32 0 80 0 16 0 32 0 11.8 7.7 9L131.6 352l-3.6 0-24 0 0 48 24 0 32 0 128 0 64 0 128 0 32 0 24 0 0-48-24 0-3.6 0 91.9-107.2 7.7-9 0-11.8 0-32 0-16 0-80 0-32 0-32 0-32L544 0l0 32 0 32 0 32 0 67.9-76.2 86.4L432.1 226l39.8-44.8 21.3-23.9-47.8-42.5-21.3 23.9-64 72-8.1 9.1 0 12.2 0 88 0 32-64 0 0-32 0-88 0-12.2-8.1-9.1-64-72-21.3-23.9-47.8 42.5 21.3 23.9L207.9 226l-35.7 24.2L96 163.9 96 96l0-32 0-32zm32 400l-24 0 0 48 24 0 32 0 0 32 128 0 0-32 64 0 0 32 128 0 0-32 32 0 24 0 0-48-24 0-32 0-128 0-64 0-128 0-32 0z"/></svg>

<svg xmlns="http://www.w3.org/2000/svg" viewBox="0 0 640 512"><!--! Font Awesome Pro 6.4.0 by @fontawesome - https://fontawesome.com License - https://fontawesome.com/license (Commercial License) Copyright 2023 Fonticons, Inc. --><path d="M96 32V0H32V32 64 96v80 16 32 11.8l7.7 9L131.6 352H128 104v48h24 32H288h64H480h32 24V352H512h-3.6l91.9-107.2 7.7-9V224 192 176 96 64 32 0H544V32 64 96v67.9l-76.2 86.4L432.1 226l39.8-44.8 21.3-23.9-47.8-42.5-21.3 23.9-64 72-8.1 9.1V232v88 32H288V320 232 219.8l-8.1-9.1-64-72-21.3-23.9-47.8 42.5 21.3 23.9L207.9 226l-35.7 24.2L96 163.9V96 64 32zm32 400H104v48h24 32v32H288V480h64v32H480V480h32 24V432H512 480 352 288 160 128z"/></svg>
